Suru++-Ubuntu/apps/symbolic/gprename-symbolic.svg

<svg version="1.1" viewBox="0 0 16 16" xmlns="http://www.w3.org/2000/svg">
 <defs>
  <style type="text/css">.ColorScheme-Text { color:#808080; }</style>
 </defs>
 <path class="ColorScheme-Text" d="m7.9063145 13.457833c-0.2386395-0.135258-0.2970327-0.242521-0.2985433-0.548317-0.0018277-0.381546 0.2371427-0.552419 0.8853142-0.632798 0.5983122-0.07428 0.6809606-0.1056 0.9767738-0.371984l0.1927689-0.173505v-3.607145c0-3.1961646-0.015789-3.6298459-0.1397183-3.8065668-0.1859513-0.2655248-0.6223544-0.4383931-1.1063998-0.4383931-0.3243032 0-0.4406959-0.0457321-0.6512728-0.2563783-0.1953465-0.1954019-0.2423817-0.3024433-0.1974526-0.4497846 0.0833156-0.2732855 0.2741167-0.4692417 0.5162124-0.5300241 0.3346726-0.0839812 1.324287 0.1130836 1.7610779 0.3509473l0.4031101 0.2195152 0.462155-0.2261672c0.514551-0.2516665 1.421646-0.4288863 1.78618-0.3488408 0.255492 0.055987 0.507375 0.3648888 0.507375 0.6219322 0 0.08703-0.07541 0.2391942-0.167574 0.338059-0.168905 0.1812665-0.31471 0.2261674-1.047249 0.3224825-0.220512 0.029102-0.500016 0.1305451-0.621134 0.22589-0.201194 0.1582618-0.220209 0.2281075-0.220209 0.8095735v0.6363172h1.107638c0.892713 0 1.133762 0.024945 1.242266 0.1347026 0.202026 0.2020538 0.202026 4.4977614 0 4.6997874-0.108538 0.108649-0.349883 0.134702-1.245869 0.134702h-1.111241l0.02494 0.655081c0.02245 0.585263 0.04798 0.67221 0.240413 0.81556 0.11846 0.08814 0.426893 0.182098 0.685389 0.208706 0.657102 0.06735 0.910603 0.181822 1.02726 0.46345 0.137779 0.332654-0.03809 0.691251-0.385923 0.786846-0.369177 0.101442-1.352824-0.06873-1.848297-0.319766l-0.422048-0.213973-0.4187813 0.212309c-0.2303246 0.116687-0.6640533 0.251944-0.9638272 0.300642-0.6754084 0.109481-0.7597916 0.108649-0.9734171-0.01386zm4.6692125-5.3807287v-1.7134664h-1.627798v3.4269316h1.627798zm-9.9748554 2.3498927c-0.2020255-0.202053-0.2020255-4.4977609 0-4.699787 0.1173247-0.1172412 0.5247969-0.1347026 3.1699231-0.1347026h3.0352946v0.7710751h-5.4831119v3.426932h5.4831119v0.7710745h-3.0352946c-2.6451262 0-3.0525984-0.01664-3.1699231-0.134703zm1.5788419-2.3498927v-0.8567472h3.7696396v1.7134667h-3.7696396z" style="fill:currentColor"/>
</svg>

<svg xmlns="http://www.w3.org/2000/svg" version="1.1" viewBox="0 0 16 16">
 <defs>
  <style id="current-color-scheme" type="text/css">
   .ColorScheme-Text { color:#808080; }
  </style>
 </defs>
 <path style="fill:currentColor;" class="ColorScheme-Text" d="M 7.9063145,13.457833 C 7.667675,13.322575 7.6092818,13.215312 7.6077712,12.909516 7.6059435,12.52797 7.8449139,12.357097 8.4930854,12.276718 9.0913976,12.202438 9.174046,12.171118 9.4698592,11.904734 L 9.6626281,11.731229 V 8.124084 c 0,-3.1961646 -0.015789,-3.6298459 -0.1397183,-3.8065668 C 9.3369585,4.0519924 8.9005554,3.8791241 8.41651,3.8791241 8.0922068,3.8791241 7.9758141,3.833392 7.7652372,3.6227458 7.5698907,3.4273439 7.5228555,3.3203025 7.5677846,3.1729612 7.6511002,2.8996757 7.8419013,2.7037195 8.083997,2.6429371 8.4186696,2.5589559 9.408284,2.7560207 9.8450749,2.9938844 L 10.248185,3.2133996 10.71034,2.9872324 c 0.514551,-0.2516665 1.421646,-0.4288863 1.78618,-0.3488408 0.255492,0.055987 0.507375,0.3648888 0.507375,0.6219322 0,0.08703 -0.07541,0.2391942 -0.167574,0.338059 -0.168905,0.1812665 -0.31471,0.2261674 -1.047249,0.3224825 -0.220512,0.029102 -0.500016,0.1305451 -0.621134,0.22589 -0.201194,0.1582618 -0.220209,0.2281075 -0.220209,0.8095735 V 5.592646 h 1.107638 c 0.892713,0 1.133762,0.024945 1.242266,0.1347026 0.202026,0.2020538 0.202026,4.4977614 0,4.6997874 -0.108538,0.108649 -0.349883,0.134702 -1.245869,0.134702 h -1.111241 l 0.02494,0.655081 c 0.02245,0.585263 0.04798,0.67221 0.240413,0.81556 0.11846,0.08814 0.426893,0.182098 0.685389,0.208706 0.657102,0.06735 0.910603,0.181822 1.02726,0.46345 0.137779,0.332654 -0.03809,0.691251 -0.385923,0.786846 -0.369177,0.101442 -1.352824,-0.06873 -1.848297,-0.319766 L 10.262257,12.957742 9.8434757,13.170051 C 9.6131511,13.286738 9.1794224,13.421995 8.8796485,13.470693 8.2042401,13.580174 8.1198569,13.579342 7.9062314,13.456833 Z M 12.575527,8.0771043 V 6.3636379 H 11.76163 10.947729 v 1.7134664 1.7134652 h 0.813901 0.813897 z M 2.6006716,10.426997 c -0.2020255,-0.202053 -0.2020255,-4.4977609 0,-4.699787 C 2.7179963,5.6099688 3.1254685,5.5925074 5.7705947,5.5925074 H 8.8058893 V 5.978045 6.3635825 H 6.0643317 3.3227774 v 1.7134661 1.7134659 h 2.7415543 2.7415576 v 0.3855375 0.385537 H 5.7705947 c -2.6451262,0 -3.0525984,-0.01664 -3.1699231,-0.134703 z M 4.1795135,8.0771043 V 7.2203571 H 6.0643317 7.9491531 V 8.0771043 8.9338238 H 6.0643317 4.1795135 Z"/>
</svg>
